icons/basketball-two-color.svg

<?xml version="1.0" encoding="UTF-8"?><svg id="uuid-1eb8fedf-0483-4fab-b8a8-da6100fdf38c" xmlns="http://www.w3.org/2000/svg" viewBox="0 0 50 50"><circle cx="26.22" cy="26.26" r="23.25" fill="#ffcd00"/><path d="M24.72,.49C11.38,.49,.52,11.35,.52,24.69s10.86,24.2,24.2,24.2,24.2-10.86,24.2-24.2S38.07,.49,24.72,.49Zm23.19,23.7h-11.91c.19-7.99,3.48-14.18,4.74-16.26,4.31,4.12,7.03,9.88,7.17,16.26Zm-22.69,0V1.5c5.65,.12,10.8,2.27,14.77,5.74-1.24,2.01-4.79,8.5-4.99,16.95h-9.78Zm-1,0H14.68c-.26-8.77-4.12-15.39-5.15-17.01C13.49,3.74,18.61,1.62,24.22,1.5V24.19Zm0,1v22.69c-5.62-.12-10.74-2.24-14.7-5.68,3.85-5.98,5.16-11.83,5.17-17.01h9.53Zm1,0h9.77c.04,5.12,1.37,10.9,5.17,16.8-3.99,3.56-9.21,5.77-14.94,5.89V25.19ZM8.78,7.86c1.1,1.75,4.66,8.06,4.91,16.33H1.53c.14-6.42,2.89-12.21,7.25-16.33ZM1.53,25.19H13.7c-.01,4.97-1.27,10.58-4.93,16.33C4.42,37.39,1.67,31.61,1.53,25.19Zm39.37,16.11c-3.6-5.66-4.86-11.19-4.91-16.11h11.91c-.13,6.3-2.79,12-7.01,16.11Z"/></svg>

<svg id="bcbfac4c-90fe-4076-8bd2-f79eba919f24" data-name="ICONS" xmlns="http://www.w3.org/2000/svg" viewBox="0 0 50 50"><circle cx="26.22" cy="26.26" r="23.25" fill="#fdd600"/><path d="M24.72.49a24.21,24.21,0,1,0,24.21,24.2A24.23,24.23,0,0,0,24.72.49Zm23.2,23.7H36A34.22,34.22,0,0,1,40.75,7.93,23.19,23.19,0,0,1,47.92,24.19Zm-22.7,0V1.5A23.11,23.11,0,0,1,40,7.25a35.12,35.12,0,0,0-5,16.94Zm-1,0H14.68a35.17,35.17,0,0,0-5.15-17A23.08,23.08,0,0,1,24.22,1.5Zm0,1V47.88A23.11,23.11,0,0,1,9.52,42.2a31,31,0,0,0,5.18-17Zm1,0H35A31,31,0,0,0,40.16,42a23,23,0,0,1-14.94,5.89ZM8.78,7.86a34.09,34.09,0,0,1,4.91,16.33H1.53A23.15,23.15,0,0,1,8.78,7.86ZM1.53,25.19H13.7A30.08,30.08,0,0,1,8.77,41.52,23.16,23.16,0,0,1,1.53,25.19ZM40.91,41.3A30.16,30.16,0,0,1,36,25.19H47.92A23.18,23.18,0,0,1,40.91,41.3Z" fill="#231f20"/></svg>
